X: 13587
T: Flying To The Fleadh
R: slip jig
M: 9/8
K: Bminor
|:~f3 efa fed|~e3 a2e dcA|~B3 c2d e2g|~f3 c2A cde|
~f3 efa fed|~e3 a2e dcA|BFd cFe dGf|1 edc aec d2e:|2 edc aec B2c||
|:~d3 c3 dcB|~c3 B3 cde|~d3 c3 def|edc aec B2c|
~d3 c3 dcB|~c3 B3 cBA|BFd cFe def|edc aec B2c:|

